X: 10588
T: Double Rise, The
R: jig
M: 6/8
K: Amixolydian
|:eAA gfe|faf def|gBB ded|GdG BAA|
eAA gfe|faf def|gBB ded|BAG A2B:|
|:c2A cde|f2d fga|gBB ded|GdG BAA|
c2A cde|f2d fga|gBB ded|BAG A2B:|
|:AAA eAa|AaA fAa|gBB ded|GdG BAA|
AAA eAa|AaA fdb|gBB ded|BAG A2B:|
|:cBA ecA|fdA aAa|gBB ded|GdG BAA|
cBA ecA|fdA aAa|gBB ded|BAG A2B:|

